X: 27375
T: Mo Chailin Deas Donn
R: jig
M: 6/8
K: Dminor
|:dDE FGA|fed c2A|cdc AGF|1 GAc d2e:|2 GAc d3||
fgf edc|fed c2A|fgf edc|GAc d2g|
agf edc|fed c2A|cdc AGF|GAc d3||

